packages/bezier-icons/icons/chat-ready.svg

<svg width="24" height="24" viewBox="0 0 24 24" fill="none" xmlns="http://www.w3.org/2000/svg">
<path fill-rule="evenodd" clip-rule="evenodd" d="M11.9998 3.99987L12.2658 4.00387L12.3248 2.005L11.9998 2C10.9909 2 9.99498 2.14999 9.04104 2.44597L9.632 4.35585C10.3949 4.11986 11.1919 3.99987 11.9998 3.99987ZM6.07832 3.94167L7.26424 5.55156C6.54529 6.08053 5.92233 6.72148 5.41336 7.45744L3.76947 6.31951C4.40443 5.40157 5.18138 4.60162 6.07832 3.94167ZM20.8244 16.6879C20.7764 16.7779 20.7044 16.9539 20.7634 17.1299L21.6313 19.7347C21.8123 20.2767 21.6733 20.8647 21.2693 21.2696C20.8644 21.6736 20.2754 21.8106 19.7344 21.6316L17.1296 20.7637C16.9546 20.7047 16.7786 20.7757 16.6896 20.8237C15.2327 21.6016 13.6348 21.9996 11.9989 21.9996C11.514 21.9996 11.025 21.9636 10.535 21.8936C10.4846 21.8861 10.4346 21.8745 10.3847 21.863L10.3847 21.863L10.3847 21.863C10.3416 21.853 10.2986 21.843 10.2551 21.8356L10.2531 21.8486C9.96808 21.7986 9.68709 21.7346 9.40911 21.6606C9.40281 21.6589 9.39684 21.6569 9.39101 21.6549C9.38666 21.6534 9.38239 21.6519 9.37811 21.6506C9.04914 21.5616 8.72616 21.4506 8.40718 21.3276C8.33118 21.2976 8.25619 21.2666 8.18119 21.2356C7.90621 21.1217 7.63523 20.9957 7.36925 20.8557C7.34457 20.8427 7.31969 20.8305 7.29479 20.8182L7.2947 20.8182L7.29458 20.8181C7.26406 20.8032 7.23351 20.7882 7.20326 20.7717C7.19152 20.7651 7.17934 20.7592 7.16704 20.7532L7.16701 20.7532L7.16698 20.7532C7.15309 20.7464 7.13904 20.7396 7.12526 20.7317L7.12926 20.7247C6.82828 20.5577 6.5343 20.3797 6.25232 20.1817L7.40324 18.5468C7.64323 18.7148 7.89421 18.8678 8.1502 19.0088C8.49017 19.1968 8.84315 19.3538 9.20113 19.4878C9.2695 19.5134 9.33831 19.5356 9.40698 19.5577L9.40699 19.5577L9.40701 19.5577L9.40702 19.5577L9.40714 19.5578C9.44286 19.5693 9.47854 19.5808 9.51411 19.5928C9.81009 19.6897 10.1101 19.7697 10.415 19.8297C10.4606 19.8391 10.5059 19.8495 10.5512 19.8599L10.5514 19.8599L10.5515 19.86L10.5517 19.86C10.6414 19.8806 10.7311 19.9011 10.822 19.9137C12.5339 20.1617 14.2368 19.8657 15.7477 19.0598C16.3887 18.7168 17.1046 18.6478 17.7626 18.8658L19.4185 19.4188L18.8665 17.7629C18.6475 17.1069 18.7165 16.391 19.0595 15.746C19.9434 14.0921 20.2104 12.2282 19.8324 10.3544C19.6594 9.48742 19.3365 8.65847 18.8745 7.88852L20.5904 6.85959C21.1693 7.82653 21.5743 8.86946 21.7933 9.95939C22.2633 12.2932 21.9283 14.6201 20.8244 16.6879ZM15.581 2.65086C16.6189 3.04884 17.5809 3.6158 18.4378 4.33775L17.1509 5.86765C16.464 5.29069 15.695 4.83672 14.8661 4.51974L15.581 2.65086ZM3.99987 11.9998C3.99987 11.2709 4.09786 10.5509 4.28985 9.85799L2.36198 9.32402C2.12299 10.19 2 11.0899 2 11.9998C2 12.2048 2.006 12.4118 2.019 12.6208L4.01487 12.5008C4.00487 12.3328 3.99987 12.1658 3.99987 11.9998ZM4.53853 18.6584C3.78957 17.8215 3.19261 16.8785 2.76364 15.8566L4.60852 15.0836C4.9505 15.8996 5.42847 16.6545 6.02943 17.3245L4.53853 18.6584Z" fill="#313234"/>
</svg>

<svg xmlns="http://www.w3.org/2000/svg" width="24" height="24" fill="none" viewBox="0 0 24 24"><path fill="#313234" fill-rule="evenodd" d="m12 4 .266.004.059-1.999L12 2c-1.01 0-2.005.15-2.959.446l.591 1.91A8 8 0 0 1 12 4m-5.922-.058 1.186 1.61a8 8 0 0 0-1.85 1.905L3.768 6.32a10 10 0 0 1 2.31-2.378m14.746 12.746c-.048.09-.12.266-.06.442l.867 2.605c.181.542.042 1.13-.362 1.535a1.5 1.5 0 0 1-1.535.362l-2.604-.868c-.175-.06-.351.012-.44.06A9.9 9.9 0 0 1 11.999 22q-.728 0-1.464-.106-.075-.013-.15-.031-.064-.016-.13-.027l-.002.013a10 10 0 0 1-.862-.194l-.013-.004a10 10 0 0 1-.97-.323q-.115-.045-.227-.092a10 10 0 0 1-.812-.38l-.074-.038-.092-.046q-.017-.01-.036-.019l-.042-.021.004-.007a10 10 0 0 1-.877-.543l1.151-1.635a8 8 0 0 0 .747.462c.34.188.693.345 1.051.479q.103.037.206.07l.107.035q.444.146.901.237l.136.03c.09.02.18.041.271.054a7.97 7.97 0 0 0 4.926-.854 2.54 2.54 0 0 1 2.015-.194l1.656.553-.553-1.656c-.218-.656-.15-1.372.194-2.017.883-1.654 1.15-3.518.772-5.392a7.7 7.7 0 0 0-.957-2.465l1.715-1.03c.58.968.984 2.01 1.203 3.1.47 2.334.135 4.661-.969 6.729M15.581 2.65c1.038.398 2 .965 2.857 1.687l-1.287 1.53a8 8 0 0 0-2.285-1.348zM4 12c0-.73.098-1.45.29-2.142l-1.928-.534a10 10 0 0 0-.343 3.297l1.996-.12A8 8 0 0 1 4 12m.539 6.658a10 10 0 0 1-1.775-2.801l1.845-.773a8 8 0 0 0 1.42 2.24z" clip-rule="evenodd"/></svg>
